svg/markdown-mark-solid.svg

<?xml version="1.0" encoding="utf-8"?>
<svg xmlns="http://www.w3.org/2000/svg" version="1.1" width="210" height="130">
	<rect style="fill:#000" width="100%" height="100%" ry="15" />
	<path style="fill:#fff" d="m 30,100 0,-70 20,0 20,25 20,-25 20,0 0,70 -20,0 0,-39 -20,25 -20,-25 0,39 z" />
	<path style="fill:#fff" d="m 155,100 -30,-35 20,0 0,-35 20,0 0,35 20,0 z" />
</svg>

<?xml version="1.0" encoding="utf-8"?>
<svg xmlns="http://www.w3.org/2000/svg" version="1.1" width="210" height="130">
  <path style="fill:#000" d="M 15 0 C 6.69 0 0 6.69 0 15 L 0 115 C 0 123.31 6.69 130 15 130 L 195 130 C 203.31 130 210 123.31 210 115 L 210 15 C 210 6.69 203.31 0 195 0 L 15 0 z M 30 30 L 50 30 L 70 55 L 90 30 L 110 30 L 110 100 L 90 100 L 90 61 L 70 86 L 50 61 L 50 100 L 30 100 L 30 30 z M 145 30 L 165 30 L 165 65 L 185 65 L 155 100 L 125 65 L 145 65 L 145 30 z" />
</svg>
